ultima-forms/img/thanks2.svg

<svg width="50" height="50" viewBox="0 0 50 50" fill="none" xmlns="http://www.w3.org/2000/svg">
<rect width="50" height="50" rx="25" fill="#7DD8FF" fill-opacity="0.5"/>
<g clip-path="url(#clip0)">
<path d="M31 24L33 26L37 22" stroke="#167FB9" stroke-width="2" stroke-linecap="round" stroke-linejoin="round"/>
<path d="M22.5 24C24.7091 24 26.5 22.2091 26.5 20C26.5 17.7909 24.7091 16 22.5 16C20.2909 16 18.5 17.7909 18.5 20C18.5 22.2091 20.2909 24 22.5 24Z" stroke="#167FB9" stroke-width="2" stroke-linecap="round" stroke-linejoin="round"/>
<path d="M26.9999 34.1422C28.388 33.8923 29.4884 33.5116 30 33C30.0718 32.3531 30 31.3333 30 31.3333C30 30.4493 29.5785 29.6014 28.8284 28.9763C26.4594 27.0022 18.5405 27.0022 16.1715 28.9763C15.4214 29.6014 15 30.4493 15 31.3333C15 31.3333 14.9281 32.3531 15 33C15.5115 33.5116 16.6119 33.8923 18 34.1422" stroke="#167FB9" stroke-width="2" stroke-linecap="round" stroke-linejoin="round"/>
</g>
<defs>
<clipPath id="clip0">
<rect width="24" height="24" fill="white" transform="translate(14 13)"/>
</clipPath>
</defs>
</svg>

<svg width="50" height="50" fill="none" xmlns="http://www.w3.org/2000/svg"><rect width="50" height="50" rx="25" fill="#7DD8FF" fill-opacity=".5"/><g clip-path="url(#clip0)" stroke="#167FB9" stroke-width="2" stroke-linecap="round" stroke-linejoin="round"><path d="M31 24l2 2 4-4M22.5 24a4 4 0 1 0 0-8 4 4 0 0 0 0 8zM27 34.142c1.388-.25 2.488-.63 3-1.142.072-.647 0-1.667 0-1.667 0-.884-.422-1.732-1.172-2.357-2.369-1.974-10.287-1.974-12.656 0-.75.625-1.172 1.473-1.172 2.357 0 0-.072 1.02 0 1.667.511.512 1.612.892 3 1.142"/></g><defs><clipPath id="clip0"><path fill="#fff" transform="translate(14 13)" d="M0 0h24v24H0z"/></clipPath></defs></svg>
